X: 3
T: Lord MacDonald
R: reel
M: 4/4
L: 1/8
K: Amix
c|Aeef ecac|ccac fBBc|Aeef ecac|1 BccB cAAa|2 BccB cAAB :|
AAcA BAcA|AAcA BGGB|AAcA BAcA|efed cAAB|
AAcA BAcA|AAcA BGGB|efed c2 BA|GAAB cAAa||


